X: 22754
T: Land's End
R: slip jig
M: 9/8
K: Dmixolydian
|:c2d d2c A2c|d2g g2f d2f|c2d d2c A2F|G2c G2F D2A|
c2d d2c A2c|d2g g2f d2f|c2d c2A G2c|G2F D3 D3:|
|:F2A A2F A2c|A2B B2c B2A|F2A A2F A2c|B2G A2F G2A|
F2A A2F A2c|A2B B2c B2c|A2B c2d e2g|f2d e2^c d3:|
|:ded c2A d2e|f2a e2g f2d|ded c2d e2c|efg d2=f e2c|
d2 e =f2e d2c|B2c A2B G2B|A,2D D2A, C2D|A,2D D3 D3:|

